src/assets/tezos_logo.svg

<svg xmlns="http://www.w3.org/2000/svg" width="47" height="64" viewBox="0 0 47 64">
  <path fill="#2C7DF7" d="M30.3602489,64 C25.7867492,64 22.4539337,62.9003442 20.3618026,60.7010326 C18.269669,58.5017186 17.2236022,56.1313477 17.2236022,53.5899199 C17.2236022,52.6613211 17.4060562,51.8793435 17.7709641,51.2439871 C18.1358695,50.6086307 18.6345757,50.1076761 19.2670826,49.7411229 C19.8995872,49.3745697 20.6780549,49.1912931 21.6024856,49.1912931 C22.5269165,49.1912931 23.3053842,49.3745697 23.9378888,49.7411229 C24.5703932,50.1076761 25.0690994,50.6086307 25.4340073,51.2439871 C25.7989151,51.8793435 25.981369,52.6613211 25.981369,53.5899199 C25.981369,54.7140138 25.7137699,55.6303942 25.1785718,56.3390612 C24.643376,57.0477282 24.0108715,57.5120276 23.2810581,57.7319595 C23.9135627,58.6116846 24.9109739,59.2348225 26.2732918,59.6013732 C27.635612,59.9923632 28.9979311,60.1878582 30.3602489,60.1878582 C32.2577649,60.1878582 33.972827,59.6746851 35.5054352,58.6483387 C37.0380433,57.6219923 38.1692552,56.1069108 38.899071,54.1030943 C39.6288842,52.0992753 39.993791,49.8266519 39.993791,47.2852241 C39.993791,44.5238644 39.5923935,42.1657119 38.7895986,40.2107667 C38.0111309,38.231387 36.8555918,36.7651793 35.3229812,35.8121436 C33.7903731,34.8591078 32.136129,34.38259 30.3602489,34.38259 C29.1925462,34.38259 27.7329195,34.8713263 25.981369,35.8487988 L22.7701871,37.4616254 L22.7701871,35.8487988 L37.2204985,16.4948441 L17.2236022,16.4948441 L17.2236022,36.5819015 C17.2236022,38.2436043 17.5885089,39.6120657 18.3183222,40.6872858 C19.048138,41.7625059 20.1671863,42.3001159 21.6754673,42.3001159 C22.8431675,42.3001159 23.9622147,41.9091271 25.0326087,41.1271495 C26.1030026,40.3451695 27.0274335,39.3921338 27.8059012,38.2680423 C27.9032098,38.0481104 28.0248458,37.8892707 28.1708089,37.7915232 C28.3167721,37.6693389 28.4748976,37.6082467 28.6451856,37.6082467 C28.9127846,37.6082467 29.2290382,37.7426495 29.593946,38.0114551 C29.9345243,38.4024451 30.1048133,38.8545261 30.1048133,39.3676981 C30.0804862,39.6120669 30.0196682,39.9541819 29.9223594,40.3940433 C29.0952374,42.251241 27.9518631,43.6685761 26.4922364,44.6460487 C25.0326099,45.6235214 23.4270201,46.1122577 21.6754673,46.1122577 C17.3452394,46.1122577 14.3530031,45.2569695 12.6987582,43.546393 C11.0445139,41.8358165 10.2173917,39.5143194 10.2173917,36.5819015 L10.2173917,16.4948441 L0,16.4948441 L0,12.7560129 L10.2173917,12.7560129 L10.2173917,4.2520055 L7.88198796,1.90607268 L7.88198796,0 L14.6692545,0 L17.2236022,1.31958767 L17.2236022,12.7560129 L43.6428586,12.6827023 L46.2701879,15.3218777 L30.0683226,31.5967934 C31.0414077,31.2058033 32.0631474,30.9614346 33.1335413,30.863687 C34.8850942,30.863687 36.8555906,31.425734 39.0450305,32.5498278 C41.2588,33.6494849 42.9616997,35.1645676 44.1537296,37.0950759 C45.3457572,39.001145 46.1120612,40.8339046 46.4526419,42.5933549 C46.8175473,44.352805 47,45.9167615 47,47.2852241 C47,50.4131345 46.3431683,53.3211142 45.0295049,56.0091634 C43.715839,58.6972125 41.7210142,60.7010315 39.0450305,62.0206203 C36.3690492,63.3402067 33.474122,64 30.3602489,64 Z"/>
</svg>

<svg xmlns="http://www.w3.org/2000/svg" width="47" height="64">
  <path fill="#2C7DF7" d="M30.36 64c-4.573 0-7.906-1.1-9.998-3.299-2.092-2.2-3.138-4.57-3.138-7.111 0-.929.182-1.71.547-2.346a4.023 4.023 0 0 1 1.496-1.503c.633-.366 1.411-.55 2.335-.55.925 0 1.703.184 2.336.55a4.023 4.023 0 0 1 1.496 1.503c.365.635.547 1.417.547 2.346 0 1.124-.267 2.04-.802 2.75-.536.708-1.168 1.172-1.898 1.392.633.88 1.63 1.503 2.992 1.87 1.363.39 2.725.586 4.087.586 1.898 0 3.613-.513 5.145-1.54 1.533-1.026 2.664-2.541 3.394-4.545s1.095-4.276 1.095-6.818c0-2.761-.402-5.12-1.204-7.074-.779-1.98-1.934-3.446-3.467-4.399-1.533-.953-3.187-1.43-4.963-1.43-1.167 0-2.627.49-4.379 1.467l-3.21 1.613v-1.613l14.45-19.354H17.223v20.087c0 1.662.365 3.03 1.094 4.105.73 1.076 1.85 1.613 3.357 1.613 1.168 0 2.287-.39 3.358-1.173a11.895 11.895 0 0 0 2.773-2.859c.097-.22.219-.379.365-.476a.725.725 0 0 1 .474-.184c.268 0 .584.135.949.403.34.391.51.844.51 1.357a9.421 9.421 0 0 1-.182 1.026c-.827 1.857-1.97 3.275-3.43 4.252a8.475 8.475 0 0 1-4.817 1.466c-4.33 0-7.322-.855-8.976-2.566-1.654-1.71-2.482-4.032-2.482-6.964V16.495H0v-3.739h10.217V4.252L7.882 1.906V0h6.787l2.555 1.32v11.436l26.419-.073 2.627 2.639-16.202 16.275a10.813 10.813 0 0 1 3.066-.733c1.751 0 3.722.562 5.911 1.686 2.214 1.1 3.917 2.615 5.109 4.545 1.192 1.906 1.958 3.739 2.299 5.498.365 1.76.547 3.324.547 4.692 0 3.128-.657 6.036-1.97 8.724-1.314 2.688-3.309 4.692-5.985 6.012C36.369 63.34 33.475 64 30.36 64z"/>
</svg>
